MonoIcons/scalable/status/mail-read-symbolic.svg

<?xml version="1.0" encoding="UTF-8"?>
<svg height="16px" viewBox="0 0 16 16" width="16px" xmlns="http://www.w3.org/2000/svg">
    <path d="m 8 0.980469 c -0.480469 0 -0.960938 0.132812 -1.386719 0.390625 l -5.285156 3.253906 c -0.824219 0.507812 -1.328125 1.40625 -1.328125 2.375 v 6 c 0 1.644531 1.355469 3 3 3 h 10 c 1.644531 0 3 -1.355469 3 -3 v -6 c 0 -0.96875 -0.503906 -1.867188 -1.328125 -2.375 l -5.289063 -3.253906 c -0.421874 -0.257813 -0.902343 -0.390625 -1.382812 -0.390625 z m 0 2 c 0.117188 0 0.234375 0.035156 0.335938 0.097656 l 5.289062 3.25 c 0.085938 0.054687 0.164062 0.121094 0.222656 0.203125 c -0.042968 0.011719 -0.085937 0.03125 -0.125 0.050781 l -5.167968 3.445313 c -0.335938 0.226562 -0.773438 0.226562 -1.109376 0 l -5.167968 -3.445313 c -0.039063 -0.019531 -0.082032 -0.039062 -0.125 -0.050781 c 0.058594 -0.078125 0.132812 -0.148438 0.222656 -0.203125 l 5.285156 -3.25 c 0.105469 -0.066406 0.222656 -0.097656 0.339844 -0.097656 z m -6 4.621093 l 4.890625 3.257813 c 0.671875 0.449219 1.546875 0.449219 2.21875 0 l 4.890625 -3.257813 v 5.398438 c 0 0.5625 -0.4375 1 -1 1 h -10 c -0.5625 0 -1 -0.4375 -1 -1 z m 0 0" fill="#2e3436" fill-opacity="0.501961"/>
</svg>

<svg width="16" height="16" viewBox="0 0 16 16" fill="none" xmlns="http://www.w3.org/2000/svg">
<g clip-path="url(#clip0_231_1014)">
<path d="M8 0.980469C7.51953 0.980469 7.03906 1.11328 6.61328 1.37109L1.32812 4.625C0.503906 5.13281 0 6.03125 0 7V13C0 14.6445 1.35547 16 3 16H13C14.6445 16 16 14.6445 16 13V7C16 6.03125 15.4961 5.13281 14.6719 4.625L9.38281 1.37109C8.96094 1.11328 8.48047 0.980469 8 0.980469V0.980469ZM8 2.98047C8.11719 2.98047 8.23438 3.01562 8.33594 3.07812L13.625 6.32812C13.7109 6.38281 13.7891 6.44922 13.8477 6.53125C13.8047 6.54297 13.7617 6.5625 13.7227 6.58203L8.55469 10.0273C8.21875 10.2539 7.78125 10.2539 7.44531 10.0273L2.27734 6.58203C2.23828 6.5625 2.19531 6.54297 2.15234 6.53125C2.21094 6.45312 2.28516 6.38281 2.375 6.32812L7.66016 3.07812C7.76562 3.01172 7.88281 2.98047 8 2.98047V2.98047ZM2 7.60156L6.89062 10.8594C7.5625 11.3086 8.4375 11.3086 9.10938 10.8594L14 7.60156V13C14 13.5625 13.5625 14 13 14H3C2.4375 14 2 13.5625 2 13V7.60156Z" fill="#2E3436" fill-opacity="0.5"/>
</g>
<defs>
<clipPath id="clip0_231_1014">
<rect width="16" height="16" fill="white"/>
</clipPath>
</defs>
</svg>
